Dominus_Funeral/22/apps/preferences-desktop-sound.svg

<svg xmlns="http://www.w3.org/2000/svg" width="24" height="24"><defs><linearGradient id="b"><stop offset="0"/><stop offset="1" stop-color="#040000" stop-opacity="0"/></linearGradient><linearGradient id="a"><stop offset="0" stop-color="#1a1a1a"/><stop offset="1" stop-color="#4d4d4d"/></linearGradient></defs><path d="M9.64.53c-.6 0-1.08.49-1.08 1.08v.83h-4.2c0-.2-.18-.39-.39-.39h-1.1A2.36 2.36 0 0 0 .54 4.41V5.5c0 .22.17.39.38.39v13.77a.38.38 0 0 0-.38.38v1.1a2.36 2.36 0 0 0 2.35 2.34h1.1c.2 0 .37-.17.37-.38h15.3c0 .2.17.38.38.38h1.1a2.36 2.36 0 0 0 2.34-2.35v-1.1a.38.38 0 0 0-.38-.37V5.88c.2 0 .38-.17.38-.39V4.42a2.36 2.36 0 0 0-2.35-2.36h-1.1a.38.38 0 0 0-.37.39h-4.21V1.6c0-.6-.49-1.08-1.08-1.08H9.64zm0 .77h4.72c.17 0 .31.13.31.31v.83H9.33V1.6c0-.17.13-.31.31-.31zM4.35 3.2H19.65v.77H4.35V3.2zm2.3 1.92a1.9 1.9 0 0 1 1.05.31L6.37 6.75a.38.38 0 0 0 0 .55.38.38 0 0 0 .55 0l1.32-1.33a1.92 1.92 0 1 1-1.6-.85zm5.35 0a1.9 1.9 0 0 1 1.6 2.96l-1.33-1.33a.38.38 0 0 0-.54 0 .38.38 0 0 0 0 .55l1.33 1.32A1.92 1.92 0 1 1 12 5.12zm5.35 0a1.9 1.9 0 0 1 1.06.31l-1.33 1.32a.38.38 0 0 0 0 .55.38.38 0 0 0 .55 0l1.32-1.33a1.92 1.92 0 1 1-1.6-.85zm-14.91.75v3.46h19.12V5.88h.77v13.77h-.77v-9.57h-1.52v9.56a.38.38 0 0 0-.38.38v2.3H4.36v-2.3a.38.38 0 0 0-.38-.38v-9.56H2.43v9.57h-.76V5.88l.77-.01zM6 10.1c-.76 0-1.38.61-1.38 1.37v9.04c0 .76.62 1.37 1.38 1.37h12c.76 0 1.38-.61 1.38-1.37v-9.04c0-.76-.62-1.37-1.38-1.37H6z" fill="#1a1a1a"/></svg>

<?xml version="1.0" encoding="UTF-8" standalone="no"?>
<svg
   xmlns:dc="http://purl.org/dc/elements/1.1/"
   xmlns:cc="http://creativecommons.org/ns#"
   xmlns:rdf="http://www.w3.org/1999/02/22-rdf-syntax-ns#"
   xmlns:svg="http://www.w3.org/2000/svg"
   xmlns="http://www.w3.org/2000/svg"
   xmlns:sodipodi="http://sodipodi.sourceforge.net/DTD/sodipodi-0.dtd"
   xmlns:inkscape="http://www.inkscape.org/namespaces/inkscape"
   width="24"
   height="24"
   version="1.1"
   id="svg16"
   sodipodi:docname="preferences-desktop-sound.svg"
   inkscape:version="0.92.4 (5da689c313, 2019-01-14)">
  <metadata
     id="metadata20">
    <rdf:RDF>
      <cc:Work
         rdf:about="">
        <dc:format>image/svg+xml</dc:format>
        <dc:type
           rdf:resource="http://purl.org/dc/dcmitype/StillImage" />
        <dc:title></dc:title>
      </cc:Work>
    </rdf:RDF>
  </metadata>
  <sodipodi:namedview
     pagecolor="#ffffff"
     bordercolor="#666666"
     borderopacity="1"
     objecttolerance="10"
     gridtolerance="10"
     guidetolerance="10"
     inkscape:pageopacity="0"
     inkscape:pageshadow="2"
     inkscape:window-width="1138"
     inkscape:window-height="480"
     id="namedview18"
     showgrid="false"
     inkscape:zoom="9.8333333"
     inkscape:cx="1.0677966"
     inkscape:cy="12"
     inkscape:window-x="0"
     inkscape:window-y="25"
     inkscape:window-maximized="0"
     inkscape:current-layer="svg16" />
  <defs
     id="defs12">
    <linearGradient
       id="b">
      <stop
         offset="0"
         id="stop2" />
      <stop
         offset="1"
         stop-color="#040000"
         stop-opacity="0"
         id="stop4" />
    </linearGradient>
    <linearGradient
       id="a">
      <stop
         offset="0"
         stop-color="#1a1a1a"
         id="stop7" />
      <stop
         offset="1"
         stop-color="#4d4d4d"
         id="stop9" />
    </linearGradient>
  </defs>
  <path
     d="m 9.64,0.53 c -0.6,0 -1.08,0.49 -1.08,1.08 V 2.44 H 4.36 C 4.36,2.24 4.18,2.05 3.97,2.05 H 2.87 A 2.36,2.36 0 0 0 0.54,4.41 V 5.5 c 0,0.22 0.17,0.39 0.38,0.39 v 13.77 a 0.38,0.38 0 0 0 -0.38,0.38 v 1.1 a 2.36,2.36 0 0 0 2.35,2.34 h 1.1 c 0.2,0 0.37,-0.17 0.37,-0.38 h 15.3 c 0,0.2 0.17,0.38 0.38,0.38 h 1.1 a 2.36,2.36 0 0 0 2.34,-2.35 v -1.1 A 0.38,0.38 0 0 0 23.1,19.66 V 5.88 c 0.2,0 0.38,-0.17 0.38,-0.39 V 4.42 A 2.36,2.36 0 0 0 21.13,2.06 h -1.1 A 0.38,0.38 0 0 0 19.66,2.45 H 15.45 V 1.6 C 15.45,1 14.96,0.52 14.37,0.52 H 9.64 Z m 0,0.77 h 4.72 c 0.17,0 0.31,0.13 0.31,0.31 V 2.44 H 9.33 V 1.6 C 9.33,1.43 9.46,1.29 9.64,1.29 Z M 4.35,3.2 h 15.3 V 3.97 H 4.35 Z m 2.3,1.92 A 1.9,1.9 0 0 1 7.7,5.43 L 6.37,6.75 a 0.38,0.38 0 0 0 0,0.55 0.38,0.38 0 0 0 0.55,0 L 8.24,5.97 A 1.92,1.92 0 1 1 6.64,5.12 Z m 5.35,0 a 1.9,1.9 0 0 1 1.6,2.96 L 12.27,6.75 a 0.38,0.38 0 0 0 -0.54,0 0.38,0.38 0 0 0 0,0.55 l 1.33,1.32 A 1.92,1.92 0 1 1 12,5.12 Z m 5.35,0 a 1.9,1.9 0 0 1 1.06,0.31 l -1.33,1.32 a 0.38,0.38 0 0 0 0,0.55 0.38,0.38 0 0 0 0.55,0 L 18.95,5.97 A 1.92,1.92 0 1 1 17.35,5.12 Z M 2.44,5.87 V 9.33 H 21.56 V 5.88 h 0.77 v 13.77 h -0.77 v -9.57 h -1.52 v 9.56 a 0.38,0.38 0 0 0 -0.38,0.38 v 2.3 H 4.36 v -2.3 A 0.38,0.38 0 0 0 3.98,19.64 V 10.08 H 2.43 v 9.57 H 1.67 V 5.88 Z M 6,10.1 c -0.76,0 -1.38,0.61 -1.38,1.37 v 9.04 c 0,0.76 0.62,1.37 1.38,1.37 h 12 c 0.76,0 1.38,-0.61 1.38,-1.37 V 11.47 C 19.38,10.71 18.76,10.1 18,10.1 Z"
     id="path14"
     inkscape:connector-curvature="0"
     style="fill:#1a1a1a" />
</svg>
